public/assets/images/others/icon/05.svg

<svg width="40" height="40" viewBox="0 0 40 40" fill="none" xmlns="http://www.w3.org/2000/svg">
<path fill-rule="evenodd" clip-rule="evenodd" d="M7.5 5H35C35.663 5 36.2989 5.26339 36.7678 5.73223C37.2366 6.20107 37.5 6.83696 37.5 7.5V25C37.5 25.663 37.2366 26.2989 36.7678 26.7678C36.2989 27.2366 35.663 27.5 35 27.5H22.5V32.5H28.75V35H17.5V32.5H20V27.5H17.5V25H35V7.5H7.5V15H5V7.5C5 6.83696 5.26339 6.20107 5.73223 5.73223C6.20107 5.26339 6.83696 5 7.5 5ZM5 37.5H12.5C13.163 37.5 13.7989 37.2366 14.2678 36.7678C14.7366 36.2989 15 35.663 15 35V20C15 19.337 14.7366 18.7011 14.2678 18.2322C13.7989 17.7634 13.163 17.5 12.5 17.5H5C4.33696 17.5 3.70107 17.7634 3.23223 18.2322C2.76339 18.7011 2.5 19.337 2.5 20V35C2.5 35.663 2.76339 36.2989 3.23223 36.7678C3.70107 37.2366 4.33696 37.5 5 37.5ZM5 35V20H12.5V35H5Z" fill="#132A64"/>
</svg>

<svg xmlns="http://www.w3.org/2000/svg" width="40" height="40" fill="none" viewBox="0 0 40 40"><path fill="#132a64" fill-rule="evenodd" d="M7.5 5H35a2.5 2.5 0 0 1 2.5 2.5V25a2.5 2.5 0 0 1-2.5 2.5H22.5v5h6.25V35H17.5v-2.5H20v-5h-2.5V25H35V7.5H7.5V15H5V7.5A2.5 2.5 0 0 1 7.5 5M5 37.5h7.5A2.5 2.5 0 0 0 15 35V20a2.5 2.5 0 0 0-2.5-2.5H5A2.5 2.5 0 0 0 2.5 20v15A2.5 2.5 0 0 0 5 37.5M5 35V20h7.5v15z" clip-rule="evenodd"/></svg>
